X:1
T:Als gij naar de woorden luistert
T:Als gij naar de woorden luistert                                    16
%%score { ( 1 2 ) | ( 3 4 ) }
L:1/8
M:6/4
K:F
V:1 treble nm="Piano" snm="Pno."
V:2 treble 
V:3 bass 
V:4 bass 
V:1
 z2 F2 | G4 F4 A2 c2 | B4 A4 F2 G2 | A2 c2 c4 =B4 | c8 c2 c2 | d4 c4 B2 A2 | G4 A4 F2 G2 | %7
w: |||||||
w: |||||||
w: |||||||
w: |||||||
 A2 B2 G6 F2 | F8 x4 |] %9
w: |weg
|
w: |naam
|
w: |gaan|
w: |geest|
V:2
 [CF]2 D2 | E4 F4 F2 F2 | (F2 E2) F4 C2 E2 | F2 G2 F4 F4 | E8 F2 G2 | F4 F4 F2 F2 | %6
w: Als gij|naar de woor den|luis * tert die hier|tot u zijn ge|zegd zul len|zij een licht ont|
w: Als gij|naar de woor den|luis * tert die van|mij ge schre ven|staan zul len|zij van vre de|
w: Als gij|naar mijn woor den|luis * tert ze van|har te wilt ver|staan zul len|zij de va der|
w: Als gij|naar mijn woor den|luis * tert brengt de|dood niet lan ger|vrees wordt gij|tot Gods zoon her|
 (E2 D2) ^C4 D2 E2 | F2 F2 F4 E4 | x12 |] %9
w: ste e ken wij zen|zij de goe de
||
w: spre e ken die er|schuil gaat in mijn||
w: to o nen zult gij|niet ver lo ren||
w: bo o ren a demt|gij zijn le vens||
V:3
 A,2 A,2 | C4 A,4 C2 A,2 | B,4 C4 A,2 C2 | C2 C2 A,2 G,2 F,4 | G,8 A,2 G,2 | A,4 A,4 D2 C2 | %6
 (C2 D2) E4 A,2 C2 | C2 D2 C4 C4 | A,8 x4 |] %9
V:4
 F,2 D,2 | C,4 F,4 F,2 F,2 | G,4 F,4 F,2 C,2 | F,2 E,2 (F,2 E,2) D,4 | C,8 F,2 E,2 | %5
 D,4 F,4 B,,2 F,2 | (C,2 B,,2) A,,4 D,2 C,2 | F,2 B,,2 C,4 C,4 | F,,8 x4 |] %9

